X:19
T:Speaking Figure. THO5.019, The
M:3/8
L:1/8
N:Pick up note changed from crotchet to quaver
B:Thompson's Complete Collection of 200 Favourite Dances Vol.5
F:https://www.libraryofdance.org/manuals/1780c-Thompson-Compleat-5.pdf
Z:vmp. Peter Dunk 2024
Q:3/8=110
K:G
"^NB"D|G2B A2c|B2A G2g|dcB ABc|BAB G2D|
G2B A2c|BAB G2g|fed Adc|d3 D2:|
|:d|e2c c2e|d2B B2d|c2A A2c|B2G AFD|
cBA B2G|c2A def|g2c BAG|DGF G2:|
W:
W:Turn Right hands round, Left hands back again ./.
W:Lead down two Couples, cast up one ./: Set 3
W:and 3, top and bottom then sides :/. Hands six quite round :/:

